X:25
T:Italian Roast-er
R:strathspey
C:Mohsen Amini & David Lombardi
D:Fourth Moon
Z:id:hn-strathspey-25
M:C
L:1/8
K:Bdor
f2 B2 B>d c<B | c2 a2 f3 e | fg a2 g2 f>e | f2 B>d cB c<e |
f2 B2 B>d c<B | c2 a2 f3 e | fg a2 g2 f>e |1 f/g/a f4 a/g/e :|2 f/g/a f3 e f/g/a ||
|: b2 B2 B>b a<g | a2 c2 c>f f<e | f2 B2 B>f f<e | a>a a<g f>e f/g/a |
b2 B2 B>b a<g | a2 c2 c>f f<e | f2 f>e f>e c>e |1 f/g/a f3 e f/g/a :|2 f/g/a f4 a/g/e ||

